youzan.svg

<svg viewBox="0 0 24 24" xmlns="http://www.w3.org/2000/svg"><path d="M12 24C18.6273 24 24 18.6274 24 11.9999C24 5.37258 18.6273-5.68434e-14 12-5.68434e-14C5.37261-5.68434e-14 2.64584e-05 5.37258 2.64584e-05 11.9999C2.64584e-05 18.6274 5.37261 24 12 24" fill="#e60013"/><path d="M17.8416 10.9167C17.9687 10.6876 18.009 10.4026 17.9164 10.1041C17.8306 9.82758 17.6201 9.60453 17.3498 9.50092C17.1651 9.43017 16.9821 9.41356 16.8124 9.43928L16.8123 9.43928C16.7959 9.44182 16.7796 9.44467 16.7635 9.44795L14.6001 9.82938C14.2681 9.89087 13.8787 9.57659 13.9425 9.08002L14.274 6.49684C14.3696 5.75188 13.7892 5.09243 13.0382 5.09243C12.6525 5.09243 12.3185 5.35977 12.2341 5.73611L11.8701 7.35864C11.528 8.88365 11.1624 10.3381 9.92945 11.6243L9.92945 17.6871L16.7552 16.484L16.7552 16.4839C17.1991 16.4171 17.5472 16.0426 17.565 15.5776C17.5693 15.4638 17.5535 15.354 17.5207 15.2514C17.4405 15.0002 17.4757 14.7293 17.6199 14.5084C17.7274 14.3433 17.793 14.148 17.8011 13.9369C17.8082 13.7493 17.7691 13.5709 17.694 13.4123C17.575 13.1614 17.586 12.872 17.7238 12.6308C17.8108 12.4785 17.8633 12.3036 17.8705 12.116C17.8769 11.949 17.8465 11.7891 17.7867 11.6441C17.689 11.4076 17.7173 11.1404 17.8416 10.9167M7.11857 12.6285C7.11857 12.3343 7.32982 12.0825 7.61959 12.0314L9.28387 11.7379L9.28387 17.8007L7.8302 18.0571C7.45888 18.1225 7.11857 17.8369 7.11857 17.46L7.11857 12.6285" fill="#ffffff"/></svg>

<svg viewBox="0 0 24 24" xmlns="http://www.w3.org/2000/svg"><path d="M12 24c6.627 0 12-5.373 12-12S18.627 0 12 0 0 5.373 0 12s5.373 12 12 12" fill="#e60013"/><path d="M17.842 10.917c.127-.23.167-.514.074-.813a.95.95 0 0 0-.566-.603 1.052 1.052 0 0 0-.538-.062 1.049 1.049 0 0 0-.049.009l-2.163.381c-.332.062-.721-.252-.657-.749l.331-2.583a1.246 1.246 0 0 0-1.236-1.405.824.824 0 0 0-.804.644L11.87 7.36c-.342 1.525-.708 2.98-1.94 4.265v6.063l6.825-1.203a.954.954 0 0 0 .766-1.233.87.87 0 0 1 .099-.743 1.123 1.123 0 0 0 .074-1.096.842.842 0 0 1 .03-.781 1.121 1.121 0 0 0 .063-.987.84.84 0 0 1 .055-.727M7.119 12.629c0-.295.21-.546.5-.598l1.665-.293V17.8l-1.454.256a.606.606 0 0 1-.711-.597v-4.832" fill="#fff"/></svg>
